assets/icons/alert-bubble.svg

<svg width="25" height="25" viewBox="0 0 25 25" fill="none" xmlns="http://www.w3.org/2000/svg">
<g id="alert-bubble">
<path id="iconDefault" fill-rule="evenodd" clip-rule="evenodd" d="M9.9433 1C5.18958 1 1.33594 4.85365 1.33594 9.60736C1.33594 13.899 4.47726 17.4578 8.58593 18.1084C9.16235 18.1997 9.64777 18.59 9.86578 19.1273C11.0256 21.9857 13.8291 23.9998 17.1019 23.9998C17.124 23.9998 17.1295 23.9944 17.1295 23.9944C17.1325 23.9922 17.1426 23.9833 17.1514 23.961C17.1707 23.9121 17.1676 23.8402 17.1232 23.7798C16.253 22.5968 15.6711 21.1876 15.4821 19.6565C15.3782 18.8149 16.0325 18.1902 16.7325 18.0523C20.6854 17.2738 23.6666 13.7882 23.6666 9.60736C23.6666 4.85365 19.813 1 15.0593 1H9.9433ZM0.335938 9.60736C0.335938 4.30136 4.6373 0 9.9433 0H15.0593C20.3653 0 24.6666 4.30136 24.6666 9.60736C24.6666 14.2751 21.3383 18.1644 16.9258 19.0334C16.6031 19.097 16.4508 19.3411 16.4746 19.534C16.642 20.8902 17.1572 22.1384 17.9288 23.1872C18.1845 23.5349 18.2226 23.9712 18.0815 24.3284C17.9358 24.6972 17.5862 24.9998 17.1019 24.9998C13.4082 24.9998 10.2468 22.7259 8.93916 19.5033C8.85151 19.2873 8.65602 19.1319 8.42954 19.0961C3.84264 18.3698 0.335938 14.3986 0.335938 9.60736ZM13.125 5.33325C13.125 4.98807 12.8452 4.70825 12.5 4.70825C12.1548 4.70825 11.875 4.98807 11.875 5.33325V10.3333C11.875 10.6784 12.1548 10.9583 12.5 10.9583C12.8452 10.9583 13.125 10.6784 13.125 10.3333V5.33325ZM13.125 13.6666C13.125 13.3214 12.8452 13.0416 12.5 13.0416C12.1548 13.0416 11.875 13.3214 11.875 13.6666V13.8333C11.875 14.1784 12.1548 14.4583 12.5 14.4583C12.8452 14.4583 13.125 14.1784 13.125 13.8333V13.6666Z" fill="#18303F"/>
</g>
</svg>

<svg width="25" height="25" viewBox="0 0 25 25" fill="none"><g id="alert-bubble"><path id="iconDefault" fill-rule="evenodd" clip-rule="evenodd" d="M9.943 1a8.607 8.607 0 0 0-1.357 17.108 1.666 1.666 0 0 1 1.28 1.02A7.808 7.808 0 0 0 17.102 24c.022 0 .027-.006.027-.006a.076.076 0 0 0 .022-.033.194.194 0 0 0-.028-.181 8.761 8.761 0 0 1-1.64-4.123c-.105-.842.55-1.467 1.25-1.605A8.607 8.607 0 0 0 15.06 1H9.942ZM.336 9.607A9.607 9.607 0 0 1 9.943 0h5.116a9.607 9.607 0 0 1 9.608 9.607c0 4.668-3.329 8.557-7.741 9.426-.323.064-.475.308-.451.501a7.76 7.76 0 0 0 1.454 3.653c.256.348.294.784.152 1.141a1.04 1.04 0 0 1-.98.672 8.808 8.808 0 0 1-8.162-5.497.666.666 0 0 0-.51-.407C3.844 18.37.337 14.4.337 9.607Zm12.789-4.274a.625.625 0 1 0-1.25 0v5a.625.625 0 0 0 1.25 0v-5Zm0 8.334a.625.625 0 1 0-1.25 0v.166a.625.625 0 0 0 1.25 0v-.166Z" fill="#18303F"/></g></svg>
